packages/ui/assets/svg/upcoming_arbitrum.svg

<svg class="icon-size" width="28" height="30" viewBox="0 0 28 30" fill="none" xmlns="http://www.w3.org/2000/svg">
<g id="arbitrum">
<g id="Group 1">
<path id="Polygon 1" d="M27.1868 20.4629C27.1868 21.1766 26.9986 21.8777 26.6411 22.4954C26.2836 23.1131 25.7696 23.6256 25.1508 23.9812L15.6151 29.4605C15 29.814 14.3029 30 13.5935 30C12.884 30 12.187 29.814 11.5718 29.4605L2.03617 23.9812C1.41735 23.6256 0.903248 23.1131 0.545752 22.4954C0.188257 21.8777 9.53674e-06 21.1766 0 20.4629V9.53708C-1.14441e-05 8.8234 0.188206 8.12234 0.545666 7.50464C0.903124 6.88693 1.41718 6.37442 2.03596 6.01883L11.5716 0.539484C12.1868 0.186012 12.8838 0 13.5933 0C14.3027 0 14.9998 0.186012 15.6149 0.539484L25.1506 6.01883C25.7694 6.3744 26.2835 6.88689 26.641 7.5046C26.9985 8.12231 27.1868 8.82338 27.1868 9.53708L27.1868 20.4629Z" fill="#1D86CC"></path>
</g>
<g id="arbitrum_2">
<path id="Path 83" d="M12.418 2.065L3.00408 7.50235C2.64619 7.70898 2.34898 8.00622 2.14241 8.36415C1.93584 8.72208 1.82719 9.12809 1.82733 9.54136L1.83323 20.428C1.83349 20.8407 1.94223 21.246 2.14855 21.6033C2.35487 21.9606 2.65151 22.2575 3.00874 22.464L12.4336 27.9123C12.7914 28.1189 13.1972 28.2276 13.6103 28.2276C14.0235 28.2276 14.4293 28.1189 14.7871 27.9123L24.201 22.4766C24.5589 22.2699 24.8561 21.9727 25.0627 21.6148C25.2692 21.2568 25.3779 20.8508 25.3777 20.4376L25.3719 9.55089C25.3716 9.1383 25.2628 8.73303 25.0565 8.37573C24.8502 8.01842 24.5535 7.72164 24.1963 7.51513L14.7715 2.06662C14.4137 1.86006 14.0079 1.75131 13.5947 1.75131C13.1816 1.75131 12.7758 1.86006 12.418 2.06662V2.065Z" fill="white"></path>
<path d="M9.31078 24.2326C9.32529 24.1616 9.35702 24.0953 9.40325 24.0396C12.2193 19.2612 15.0359 14.4831 17.8529 9.70509C17.8921 9.63874 17.9284 9.57057 17.9616 9.51113C17.9369 9.46791 17.9087 9.47684 17.8848 9.47684C16.6812 9.4811 15.4777 9.48881 14.2734 9.48739C14.2219 9.48647 14.1714 9.50134 14.1286 9.53C14.0859 9.55865 14.0529 9.59973 14.0342 9.64768C13.1263 11.149 12.2173 12.65 11.3071 14.1505C9.37905 17.3317 7.45076 20.5127 5.52226 23.6937C5.50522 23.7219 5.48735 23.7495 5.47213 23.7785C5.43805 23.8442 5.39931 23.8546 5.33012 23.8144C5.03087 23.6377 4.72837 23.4667 4.41045 23.2839L12.9925 9.51965C12.9741 9.46365 12.9361 9.47765 12.9069 9.47664C12.447 9.46284 11.9869 9.44297 11.5273 9.43891C10.8817 9.41978 10.2384 9.52346 9.6315 9.74445C9.07882 9.94911 8.60914 10.3304 8.2953 10.8293C6.72726 13.275 5.15329 15.717 3.57334 18.1551C3.54859 18.1937 3.52223 18.2314 3.49667 18.2695C3.40618 18.2695 3.41954 18.1949 3.41122 18.1427C3.40322 18.0642 3.40135 17.9852 3.40558 17.9064C3.40558 15.2096 3.41491 12.5128 3.39725 9.81627C3.38308 9.58392 3.43893 9.35265 3.55764 9.15241C3.67636 8.95217 3.85247 8.79216 4.06312 8.69309C6.13682 7.51088 8.19713 6.30432 10.2641 5.11013C11.1867 4.57715 12.112 4.04923 13.0279 3.50509C13.2001 3.38951 13.4029 3.32779 13.6103 3.32779C13.8178 3.32779 14.0206 3.38951 14.1928 3.50509C15.8768 4.49335 17.5757 5.45868 19.2684 6.43294C20.5451 7.16806 21.8224 7.9019 23.1004 8.63446C23.1919 8.6866 23.2809 8.74239 23.3728 8.79372C23.5222 8.87313 23.6458 8.99366 23.7289 9.14107C23.812 9.28847 23.8512 9.4566 23.8419 9.62556C23.8443 12.559 23.8443 15.4925 23.8419 18.426C23.8478 18.4981 23.84 18.5708 23.8187 18.64C23.7173 18.738 23.6806 18.628 23.6437 18.5759C23.4915 18.3618 23.3549 18.1364 23.2135 17.9149C22.0812 16.1423 20.945 14.3722 19.805 12.6043C19.422 12.0068 19.0341 11.4118 18.6551 10.8118C18.5666 10.6718 18.5506 10.6698 18.4622 10.8202C17.8903 11.7878 17.3188 12.7556 16.7476 13.7237C16.7162 13.7775 16.7027 13.8398 16.709 13.9018C16.7153 13.9637 16.741 14.0221 16.7824 14.0686C17.2534 14.8284 17.7235 15.5889 18.1927 16.3498L20.5984 20.2412C20.923 20.7671 21.2481 21.2925 21.5738 21.8174C21.6343 21.8878 21.6683 21.977 21.67 22.0698C21.6049 22.1992 21.4691 22.2355 21.3561 22.2944C21.1707 22.4283 20.9668 22.5347 20.7509 22.6103C20.6345 22.5813 20.5933 22.4762 20.5381 22.3901C19.7933 21.2284 19.058 20.0608 18.3181 18.8962C17.5571 17.6992 16.7997 16.4977 16.0354 15.3019C15.9375 15.1485 15.9218 15.1475 15.8297 15.3019C15.1648 16.4204 14.5091 17.5442 13.8426 18.6615C13.8085 18.7139 13.7918 18.7756 13.7947 18.838C13.7977 18.9004 13.8202 18.9603 13.8591 19.0092C14.7568 20.3929 15.6339 21.7888 16.5222 23.1794C16.7699 23.5669 17.0194 23.953 17.2627 24.3433C17.3101 24.4192 17.3751 24.4949 17.3321 24.5976C17.0989 24.779 16.8473 24.9354 16.5814 25.0642C15.7517 25.5469 14.9217 26.029 14.0912 26.5104C13.9582 26.5963 13.8031 26.6419 13.6448 26.6419C13.4865 26.6419 13.3315 26.5963 13.1985 26.5104C11.9752 25.8027 10.7497 25.0982 9.52198 24.3969C9.4374 24.3633 9.36414 24.3063 9.31078 24.2326Z" fill="#2D374B"></path>
<path id="Path 85" d="M23.7825 18.6694C23.7843 18.597 23.7879 18.5248 23.7879 18.4525C23.7879 15.5257 23.7889 12.599 23.7908 9.67243C23.8012 9.49494 23.7595 9.31828 23.6709 9.16414C23.5824 9.00999 23.4507 8.88505 23.2921 8.80468C20.2188 7.04281 17.1477 5.27696 14.0788 3.50712C13.9406 3.41721 13.7795 3.36915 13.6146 3.36872C13.4497 3.36829 13.2883 3.4155 13.1496 3.50468C11.4454 4.49517 9.73894 5.4831 8.03037 6.46845C6.65954 7.26201 5.28881 8.05577 3.91811 8.84973C3.77171 8.92567 3.65034 9.04225 3.56861 9.1855C3.48687 9.32874 3.44825 9.49254 3.45736 9.65721C3.46439 12.4656 3.46835 15.2739 3.46929 18.0823C3.46929 18.1448 3.44394 18.2143 3.49852 18.2695C3.1739 18.81 2.81723 19.3294 2.47537 19.8583C2.30413 20.1232 2.13222 20.3875 1.95963 20.6514C1.93204 20.6936 1.90019 20.7326 1.84561 20.8078C1.84155 20.7194 1.83729 20.6705 1.83729 20.6218C1.83729 16.9183 1.83797 13.2148 1.83932 9.51134C1.83028 9.1003 1.93463 8.69471 2.14092 8.33907C2.34721 7.98343 2.64745 7.69148 3.00874 7.49525C4.20049 6.78759 5.40807 6.1063 6.60774 5.41121C7.61994 4.82507 8.6287 4.23446 9.64029 3.64731C10.5837 3.09952 11.5176 2.53529 12.477 2.01732C12.8445 1.8127 13.2602 1.71051 13.6806 1.72143C14.1011 1.73236 14.5109 1.85598 14.8672 2.07941C15.6382 2.51683 16.4059 2.96237 17.1747 3.40425C17.8978 3.82044 18.6208 4.2369 19.3438 4.65363C20.01 5.03722 20.6765 5.4204 21.3432 5.80318C22.0042 6.18285 22.6653 6.56231 23.3264 6.94158C23.6169 7.10855 23.9072 7.27573 24.1959 7.44575C24.5147 7.62608 24.7887 7.87588 24.9977 8.1766C25.2067 8.47733 25.3453 8.82125 25.4032 9.18286C25.4168 9.2873 25.421 9.39275 25.4157 9.49794C25.4157 13.1422 25.4162 16.7865 25.4171 20.4309C25.419 20.7772 25.3443 21.1196 25.1983 21.4336C25.0523 21.7476 24.8387 22.0254 24.5727 22.2471C24.421 22.3629 24.2578 22.4629 24.0858 22.5456C23.0984 23.1216 22.1096 23.6953 21.1194 24.2666C20.0672 24.8753 19.0146 25.4829 17.9614 26.0896C16.9496 26.6758 15.9388 27.2642 14.9291 27.8547C14.6778 28.0238 14.3948 28.1405 14.0973 28.1978C13.603 28.2942 13.0909 28.2291 12.6365 28.0119C12.133 27.7419 11.6424 27.4489 11.1459 27.1645C10.4792 26.782 9.8129 26.3987 9.14689 26.0147C8.95875 25.9065 8.77043 25.7989 8.58202 25.6919C8.51283 25.6526 8.46559 25.6126 8.51956 25.5223C8.7687 25.105 9.01398 24.6852 9.2619 24.2671C9.27063 24.2518 9.29293 24.2447 9.30896 24.2336C9.53997 24.3415 9.76364 24.4645 9.9785 24.6018C11.0664 25.224 12.1526 25.8492 13.2371 26.4775C13.3624 26.5567 13.5079 26.598 13.6561 26.5965C13.8043 26.5949 13.949 26.5505 14.0725 26.4686C15.1026 25.8642 16.1379 25.2685 17.171 24.6698C17.2221 24.6402 17.2745 24.6132 17.3264 24.5852C17.4238 24.4607 17.5539 24.3658 17.7022 24.3111C18.6355 23.7763 19.5618 23.2309 20.4949 22.6975C20.5728 22.6531 20.643 22.5845 20.7444 22.5961L21.6587 22.0665C21.7145 21.9497 21.8336 21.9119 21.9334 21.8543C22.3933 21.5887 22.849 21.3159 23.313 21.0588C23.4473 20.9881 23.5583 20.8802 23.6328 20.748C23.7072 20.6158 23.7419 20.4649 23.7328 20.3134C23.7374 19.848 23.7328 19.3824 23.735 18.9167C23.7188 18.8313 23.7358 18.7428 23.7825 18.6694Z" fill="#96BEDC"></path>
<path id="Path 90" d="M23.7835 18.6692C23.7859 19.2471 23.7987 19.8257 23.7857 20.4027C23.7893 20.5379 23.7554 20.6714 23.6877 20.7885C23.6201 20.9056 23.5214 21.0017 23.4025 21.0662C22.8206 21.3956 22.2492 21.7438 21.6621 22.0643C21.4286 21.6383 21.1589 21.2325 20.9037 20.8186C19.5782 18.6702 18.2512 16.523 16.9227 14.377C16.8432 14.2484 16.7703 14.1149 16.6814 13.9933C16.6525 13.9585 16.6367 13.9146 16.6367 13.8693C16.6367 13.824 16.6525 13.7801 16.6814 13.7452C16.9985 13.2148 17.3104 12.6815 17.6243 12.1489L18.4955 10.6711C18.5109 10.6359 18.5381 10.6072 18.5723 10.5899C18.7239 10.8234 18.8767 11.059 19.0292 11.2947C19.9457 12.7217 20.8621 14.1487 21.7781 15.5756C22.3994 16.5438 23.0206 17.5121 23.6417 18.4804C23.6758 18.5522 23.724 18.6165 23.7835 18.6692Z" fill="#28A0F0"></path>
<path id="Path 91" d="M20.7479 22.5939C20.3695 22.8422 19.9682 23.0534 19.5783 23.2837C18.8712 23.6994 18.1597 24.1074 17.4502 24.5184C17.4096 24.5414 17.369 24.5629 17.3299 24.585C17.3209 24.5194 17.2927 24.4579 17.2487 24.4083C16.6169 23.4153 15.9851 22.4226 15.3532 21.4301C14.8339 20.6151 14.3131 19.8008 13.7909 18.9874C13.7555 18.9452 13.735 18.8925 13.7325 18.8375C13.7301 18.7825 13.7457 18.7282 13.7771 18.683C14.4752 17.5074 15.1704 16.33 15.8626 15.1508C15.879 15.1236 15.8922 15.0919 15.933 15.0832C15.9898 15.096 16.0036 15.1528 16.0306 15.1952C17.2885 17.1766 18.5464 19.1581 19.8043 21.1398C20.0719 21.5616 20.3383 21.9844 20.6075 22.4054C20.6418 22.4767 20.6893 22.5407 20.7475 22.5943L20.7479 22.5939Z" fill="#28A0F0"></path>
</g>
</g>
</svg>

<svg class="icon-size" width="28" height="30" viewBox="0 0 28 30" fill="none" xmlns="http://www.w3.org/2000/svg"><path d="M27.187 20.463a4.058 4.058 0 0 1-2.036 3.518l-9.536 5.48a4.057 4.057 0 0 1-4.043 0l-9.536-5.48A4.058 4.058 0 0 1 0 20.463V9.537A4.058 4.058 0 0 1 2.036 6.02l9.536-5.48a4.058 4.058 0 0 1 4.043 0l9.536 5.48a4.058 4.058 0 0 1 2.036 3.518v10.926Z" fill="#1D86CC"/><path d="M12.418 2.065 3.004 7.502a2.354 2.354 0 0 0-1.177 2.04l.006 10.886a2.353 2.353 0 0 0 1.176 2.036l9.425 5.448a2.353 2.353 0 0 0 2.353 0l9.414-5.435a2.355 2.355 0 0 0 1.177-2.04l-.006-10.886a2.354 2.354 0 0 0-1.176-2.036l-9.425-5.448a2.354 2.354 0 0 0-2.353 0v-.002Z" fill="#fff"/><path d="M9.31 24.233a.44.44 0 0 1 .093-.193l8.45-14.335c.04-.066.075-.134.109-.194-.025-.043-.053-.034-.077-.034-1.204.004-2.407.012-3.612.01a.252.252 0 0 0-.239.16 84980.223 84980.223 0 0 1-8.512 14.046c-.017.029-.035.057-.05.086-.034.065-.073.076-.142.035-.3-.176-.602-.347-.92-.53L12.992 9.52c-.018-.056-.056-.042-.085-.043-.46-.014-.92-.034-1.38-.038a5.1 5.1 0 0 0-1.895.305 2.677 2.677 0 0 0-1.337 1.085 1792.273 1792.273 0 0 1-4.722 7.326c-.024.039-.05.076-.076.114-.09 0-.077-.074-.086-.126a1.525 1.525 0 0 1-.005-.237c0-2.696.009-5.393-.009-8.09a1.163 1.163 0 0 1 .666-1.123c2.074-1.182 4.134-2.389 6.201-3.583.923-.533 1.848-1.06 2.764-1.605a1.045 1.045 0 0 1 1.165 0c1.684.988 3.383 1.954 5.075 2.928 1.277.735 2.554 1.469 3.832 2.201.092.053.18.108.273.16a.886.886 0 0 1 .469.832c.002 2.933.002 5.867 0 8.8a.57.57 0 0 1-.023.214c-.102.098-.138-.012-.175-.064-.152-.214-.29-.44-.43-.661a1471.757 1471.757 0 0 0-3.409-5.31c-.383-.598-.77-1.193-1.15-1.793-.088-.14-.104-.142-.193.008l-1.714 2.904a.294.294 0 0 0 .034.345c.471.76.942 1.52 1.41 2.28l2.406 3.892c.325.526.65 1.052.976 1.576.06.07.094.16.096.253-.065.13-.2.165-.314.224-.185.134-.39.24-.605.316-.117-.029-.158-.134-.213-.22-.745-1.162-1.48-2.33-2.22-3.494-.76-1.197-1.518-2.398-2.283-3.594-.098-.153-.113-.154-.205 0-.665 1.118-1.32 2.242-1.987 3.36a.298.298 0 0 0 .016.347c.898 1.384 1.775 2.78 2.663 4.17.248.388.497.774.74 1.164.048.076.113.152.07.255a4.216 4.216 0 0 1-.75.466l-2.49 1.446a.823.823 0 0 1-.894 0 773.356 773.356 0 0 0-3.676-2.113.48.48 0 0 1-.211-.164Z" fill="#2D374B"/><path d="M23.782 18.67c.002-.073.006-.145.006-.218 0-2.926 0-5.853.003-8.78a.913.913 0 0 0-.499-.867 4136.185 4136.185 0 0 1-9.213-5.298.855.855 0 0 0-.93-.002A18300.776 18300.776 0 0 0 3.919 8.85a.856.856 0 0 0-.46.807c.006 2.809.01 5.617.011 8.425 0 .063-.025.132.03.188-.325.54-.682 1.06-1.024 1.588-.17.265-.343.53-.515.793-.028.043-.06.082-.114.157-.004-.089-.009-.137-.009-.186l.002-11.11a2.238 2.238 0 0 1 1.17-2.017c1.191-.707 2.4-1.389 3.599-2.084 1.012-.586 2.02-1.177 3.032-1.764.944-.547 1.878-1.112 2.837-1.63a2.349 2.349 0 0 1 2.39.062c.771.438 1.539.883 2.308 1.325l2.169 1.25a1863.537 1863.537 0 0 0 3.982 2.288c.29.167.581.334.87.504a2.438 2.438 0 0 1 1.207 1.737c.014.104.018.21.013.315l.001 10.933a2.348 2.348 0 0 1-.844 1.816 2.807 2.807 0 0 1-.487.299 1985.654 1985.654 0 0 1-6.124 3.544 859.781 859.781 0 0 0-3.033 1.765c-.251.169-.534.285-.832.343a2.346 2.346 0 0 1-1.46-.186c-.504-.27-.995-.563-1.491-.848-.667-.382-1.333-.765-2-1.15l-.564-.322c-.07-.04-.116-.08-.062-.17.249-.417.494-.837.742-1.255.009-.015.03-.022.047-.033.231.107.455.23.67.368 1.087.622 2.174 1.247 3.258 1.875a.77.77 0 0 0 .835-.008c1.03-.605 2.066-1.2 3.099-1.8.051-.029.104-.056.155-.084a.851.851 0 0 1 .376-.274c.933-.535 1.86-1.08 2.793-1.613.078-.045.148-.114.25-.102l.914-.53c.056-.116.175-.154.274-.212.46-.265.916-.538 1.38-.795a.789.789 0 0 0 .42-.746c.004-.465 0-.93.002-1.396a.342.342 0 0 1 .047-.248Z" fill="#96BEDC"/><path d="M23.784 18.67c.002.577.015 1.156.002 1.733a.732.732 0 0 1-.384.663c-.581.33-1.153.678-1.74.998-.233-.426-.503-.831-.758-1.245a5011.98 5011.98 0 0 0-3.981-6.442c-.08-.129-.153-.262-.242-.384a.194.194 0 0 1 0-.248c.317-.53.63-1.063.943-1.596l.872-1.478a.165.165 0 0 1 .076-.081l.457.705a23527.743 23527.743 0 0 1 4.613 7.185.59.59 0 0 0 .142.19ZM20.748 22.594c-.379.248-.78.46-1.17.69-.707.415-1.418.823-2.128 1.234l-.12.067a.335.335 0 0 0-.081-.177l-1.896-2.978c-.52-.815-1.04-1.63-1.562-2.443a.251.251 0 0 1-.014-.304 811.562 811.562 0 0 0 2.086-3.532c.016-.027.03-.06.07-.068.057.013.07.07.098.112l3.773 5.945c.268.422.534.844.804 1.265a.625.625 0 0 0 .14.19v-.001Z" fill="#28A0F0"/></svg>
